X:20
T:Dunmore Lasses
R:reel
M:4/4
L:1/8
K:Emin
E2EF G2GA | Beed Bee2 | E2EF G2BG | AcBA GAFA |
E2EF G2GA | Beed e2ef | gefd edBG | AcBA GEED ::
gfeg fedA | Beed Beef | gfeg fedA | BcBA GEEf |
gfeg fedA | Beed e2ef | gefd edBG | AcBA GEED :|
